Newaita-dark/.DP/24/weather-windy.svg

<svg xmlns="http://www.w3.org/2000/svg" xmlns:xlink="http://www.w3.org/1999/xlink" width="24px" height="24px" viewBox="0 0 24 24" version="1.1">
<defs>
<radialGradient id="radial0" gradientUnits="userSpaceOnUse" cx="450.908997" cy="189.578995" fx="450.908997" fy="189.578995" r="21.167" gradientTransform="matrix(0,-0.058605,-0.10548,0,32.647499,45.687)">
<stop offset="0" style="stop-color:rgb(0%,0%,0%);stop-opacity:0.314;"/>
<stop offset="0.222" style="stop-color:rgb(0%,0%,0%);stop-opacity:0.275;"/>
<stop offset="1" style="stop-color:rgb(0%,0%,0%);stop-opacity:0;"/>
</radialGradient>
<radialGradient id="radial1" gradientUnits="userSpaceOnUse" cx="450.908997" cy="189.578995" fx="450.908997" fy="189.578995" r="21.167" gradientTransform="matrix(0,0.058605,0.10548,0,-6.849,-7.6545)">
<stop offset="0" style="stop-color:rgb(0%,0%,0%);stop-opacity:0.314;"/>
<stop offset="0.222" style="stop-color:rgb(0%,0%,0%);stop-opacity:0.275;"/>
<stop offset="1" style="stop-color:rgb(0%,0%,0%);stop-opacity:0;"/>
</radialGradient>
<radialGradient id="radial2" gradientUnits="userSpaceOnUse" cx="450.908997" cy="189.578995" fx="450.908997" fy="189.578995" r="21.167" gradientTransform="matrix(0,-0.058605,0.10548,0,-6.849,45.687)">
<stop offset="0" style="stop-color:rgb(0%,0%,0%);stop-opacity:0.314;"/>
<stop offset="0.222" style="stop-color:rgb(0%,0%,0%);stop-opacity:0.275;"/>
<stop offset="1" style="stop-color:rgb(0%,0%,0%);stop-opacity:0;"/>
</radialGradient>
<radialGradient id="radial3" gradientUnits="userSpaceOnUse" cx="450.908997" cy="189.578995" fx="450.908997" fy="189.578995" r="21.167" gradientTransform="matrix(0,0.058605,-0.10548,0,32.647499,-7.6545)">
<stop offset="0" style="stop-color:rgb(0%,0%,0%);stop-opacity:0.314;"/>
<stop offset="0.222" style="stop-color:rgb(0%,0%,0%);stop-opacity:0.275;"/>
<stop offset="1" style="stop-color:rgb(0%,0%,0%);stop-opacity:0;"/>
</radialGradient>
<linearGradient id="linear0" gradientUnits="userSpaceOnUse" x1="1040" y1="1535.118042" x2="1040" y2="295.118011" gradientTransform="matrix(0.0124035,0.000190953,-0.000190953,0.0124035,0,0)">
<stop offset="0" style="stop-color:rgb(69.01961%,74.509805%,77.254903%);stop-opacity:1;"/>
<stop offset="1" style="stop-color:rgb(81.176472%,84.705883%,86.274511%);stop-opacity:1;"/>
</linearGradient>
</defs>
<g id="surface1">
<path style=" stroke:none;fill-rule:nonzero;fill:url(#radial0);" d="M 12.902344 19.011719 L 14.882812 19.011719 L 14.882812 18.023438 L 12.902344 18.023438 Z M 12.902344 19.011719 "/>
<path style=" stroke:none;fill-rule:nonzero;fill:url(#radial1);" d="M 12.902344 19.011719 L 10.917969 19.011719 L 10.917969 20.011719 L 12.902344 20.011719 Z M 12.902344 19.011719 "/>
<path style=" stroke:none;fill-rule:nonzero;fill:url(#radial2);" d="M 12.902344 19.011719 L 10.917969 19.011719 L 10.917969 18.023438 L 12.902344 18.023438 Z M 12.902344 19.011719 "/>
<path style=" stroke:none;fill-rule:nonzero;fill:url(#radial3);" d="M 12.902344 19.011719 L 14.882812 19.011719 L 14.882812 20.011719 L 12.902344 20.011719 Z M 12.902344 19.011719 "/>
<path style=" stroke:none;fill-rule:nonzero;fill:url(#linear0);" d="M 11.160156 3.683594 C 10.503906 3.683594 9.871094 3.941406 9.410156 4.410156 C 8.949219 4.875 8.683594 5.507812 8.683594 6.164062 C 8.683594 6.726562 8.863281 7.238281 9.175781 7.652344 L 4.964844 7.652344 C 4.6875 7.652344 4.464844 7.875 4.464844 8.152344 C 4.464844 8.425781 4.6875 8.648438 4.964844 8.648438 L 11.160156 8.648438 C 12.539062 8.648438 13.644531 7.542969 13.644531 6.164062 C 13.644531 4.792969 12.539062 3.683594 11.160156 3.683594 Z M 18.855469 3.683594 C 17.480469 3.683594 16.371094 4.792969 16.371094 6.164062 C 16.371094 6.726562 16.558594 7.238281 16.863281 7.652344 L 14.183594 7.652344 C 14.015625 8.042969 13.738281 8.390625 13.402344 8.648438 L 18.355469 8.648438 C 18.410156 8.648438 18.464844 8.636719 18.511719 8.621094 C 18.621094 8.636719 18.738281 8.648438 18.855469 8.648438 C 20.226562 8.648438 21.332031 7.542969 21.332031 6.164062 C 21.332031 5.507812 21.074219 4.875 20.605469 4.410156 C 20.144531 3.941406 19.511719 3.683594 18.855469 3.683594 Z M 8.433594 10.105469 C 8.15625 10.105469 7.933594 10.332031 7.941406 10.605469 C 7.933594 10.878906 8.15625 11.105469 8.433594 11.105469 L 16.863281 11.105469 C 16.542969 11.53125 16.371094 12.058594 16.371094 12.589844 C 16.371094 13.964844 17.480469 15.070312 18.855469 15.070312 C 19.511719 15.070312 20.144531 14.8125 20.605469 14.34375 C 21.070312 13.878906 21.332031 13.246094 21.332031 12.589844 C 21.332031 11.214844 20.226562 10.105469 18.855469 10.105469 Z M 2.484375 14.082031 C 2.207031 14.082031 1.988281 14.300781 1.988281 14.578125 C 1.988281 14.847656 2.207031 15.070312 2.484375 15.070312 L 10.917969 15.070312 C 10.59375 15.496094 10.425781 16.019531 10.425781 16.558594 C 10.425781 17.933594 11.527344 19.042969 12.902344 19.042969 C 14.277344 19.042969 15.378906 17.933594 15.378906 16.558594 C 15.378906 15.1875 14.277344 14.082031 12.902344 14.082031 Z M 2.484375 14.082031 "/>
<path style=" stroke:none;fill-rule:nonzero;fill:rgb(99.607843%,99.607843%,99.607843%);fill-opacity:0.392;" d="M 11.160156 3.683594 C 10.503906 3.683594 9.871094 3.941406 9.410156 4.410156 C 8.949219 4.875 8.683594 5.507812 8.683594 6.164062 L 8.683594 6.277344 C 8.742188 4.949219 9.839844 3.910156 11.160156 3.910156 C 12.496094 3.910156 13.582031 4.957031 13.640625 6.277344 C 13.640625 6.238281 13.644531 6.207031 13.644531 6.164062 C 13.644531 4.792969 12.539062 3.683594 11.160156 3.683594 Z M 18.855469 3.683594 C 18.183594 3.683594 17.53125 3.960938 17.0625 4.449219 C 16.59375 4.941406 16.347656 5.601562 16.378906 6.277344 C 16.433594 4.949219 17.527344 3.902344 18.855469 3.910156 C 20.191406 3.910156 21.277344 4.957031 21.332031 6.277344 L 21.332031 6.164062 C 21.332031 5.507812 21.074219 4.875 20.605469 4.410156 C 20.144531 3.941406 19.511719 3.683594 18.855469 3.683594 Z M 4.964844 7.652344 C 4.808594 7.652344 4.664062 7.722656 4.570312 7.839844 C 4.476562 7.957031 4.441406 8.113281 4.476562 8.261719 C 4.523438 8.035156 4.730469 7.875 4.964844 7.875 L 9.175781 7.875 C 9.121094 7.804688 9.070312 7.730469 9.023438 7.652344 Z M 14.183594 7.652344 C 14.011719 8.042969 13.738281 8.390625 13.402344 8.648438 L 13.660156 8.648438 C 13.878906 8.425781 14.058594 8.167969 14.183594 7.875 L 16.863281 7.875 C 16.808594 7.804688 16.761719 7.730469 16.714844 7.652344 Z M 8.433594 10.105469 C 8.277344 10.105469 8.136719 10.175781 8.042969 10.292969 C 7.949219 10.417969 7.917969 10.570312 7.949219 10.714844 C 8.003906 10.496094 8.203125 10.335938 8.433594 10.335938 L 18.855469 10.335938 C 20.191406 10.335938 21.277344 11.378906 21.332031 12.703125 L 21.332031 12.589844 C 21.332031 11.214844 20.226562 10.105469 18.855469 10.105469 Z M 16.714844 11.324219 C 16.472656 11.742188 16.355469 12.222656 16.378906 12.703125 C 16.402344 12.1875 16.574219 11.714844 16.863281 11.324219 Z M 2.484375 14.082031 C 2.332031 14.082031 2.191406 14.152344 2.089844 14.269531 C 1.996094 14.386719 1.964844 14.542969 1.996094 14.691406 C 2.050781 14.460938 2.25 14.300781 2.484375 14.300781 L 12.902344 14.300781 C 14.238281 14.300781 15.324219 15.351562 15.378906 16.667969 L 15.378906 16.558594 C 15.378906 15.1875 14.277344 14.082031 12.902344 14.082031 Z M 10.761719 15.300781 C 10.542969 15.679688 10.425781 16.113281 10.425781 16.558594 L 10.425781 16.667969 C 10.449219 16.152344 10.628906 15.679688 10.917969 15.300781 Z M 10.761719 15.300781 "/>
<path style=" stroke:none;fill-rule:nonzero;fill:rgb(0%,0%,0%);fill-opacity:0.235;" d="M 8.683594 6.042969 L 8.683594 6.164062 C 8.683594 6.613281 8.800781 7.042969 9.011719 7.40625 L 9.175781 7.40625 C 8.882812 7.007812 8.714844 6.535156 8.683594 6.042969 Z M 16.378906 6.042969 C 16.371094 6.082031 16.371094 6.121094 16.371094 6.164062 C 16.371094 6.613281 16.496094 7.042969 16.707031 7.40625 L 16.863281 7.40625 C 16.570312 7.011719 16.402344 6.535156 16.378906 6.042969 Z M 13.640625 6.042969 C 13.582031 7.363281 12.488281 8.402344 11.160156 8.394531 L 4.964844 8.394531 C 4.738281 8.394531 4.542969 8.246094 4.480469 8.027344 C 4.449219 8.175781 4.480469 8.332031 4.574219 8.457031 C 4.667969 8.578125 4.808594 8.648438 4.964844 8.648438 L 11.160156 8.648438 C 12.539062 8.648438 13.644531 7.542969 13.644531 6.164062 C 13.644531 6.121094 13.640625 6.082031 13.640625 6.042969 Z M 21.328125 6.042969 C 21.300781 6.738281 20.976562 7.386719 20.4375 7.832031 C 19.898438 8.277344 19.199219 8.472656 18.511719 8.371094 C 18.464844 8.390625 18.410156 8.394531 18.355469 8.394531 L 13.683594 8.394531 C 13.59375 8.484375 13.5 8.574219 13.402344 8.648438 L 18.355469 8.648438 C 18.410156 8.648438 18.464844 8.636719 18.511719 8.621094 C 18.621094 8.636719 18.738281 8.648438 18.855469 8.648438 C 20.226562 8.648438 21.332031 7.542969 21.332031 6.164062 C 21.332031 6.121094 21.332031 6.082031 21.328125 6.042969 Z M 7.949219 10.480469 C 7.945312 10.523438 7.941406 10.566406 7.941406 10.605469 C 7.933594 10.878906 8.15625 11.105469 8.433594 11.105469 L 16.707031 11.105469 C 16.753906 11.015625 16.804688 10.933594 16.863281 10.855469 L 8.433594 10.855469 C 8.203125 10.855469 8.011719 10.699219 7.949219 10.480469 Z M 21.328125 12.46875 C 21.261719 13.785156 20.175781 14.824219 18.855469 14.824219 C 17.53125 14.824219 16.441406 13.785156 16.378906 12.46875 C 16.371094 12.511719 16.371094 12.550781 16.371094 12.589844 C 16.371094 13.964844 17.480469 15.070312 18.855469 15.070312 C 19.511719 15.070312 20.144531 14.8125 20.605469 14.34375 C 21.070312 13.878906 21.332031 13.246094 21.332031 12.589844 C 21.332031 12.550781 21.332031 12.511719 21.328125 12.46875 Z M 2.003906 14.449219 C 1.964844 14.597656 1.996094 14.753906 2.089844 14.878906 C 2.183594 15 2.332031 15.070312 2.484375 15.070312 L 10.753906 15.070312 C 10.800781 14.988281 10.855469 14.902344 10.917969 14.824219 L 2.484375 14.824219 C 2.253906 14.832031 2.058594 14.671875 2.003906 14.449219 Z M 15.378906 16.433594 C 15.316406 17.761719 14.226562 18.796875 12.902344 18.792969 C 11.578125 18.796875 10.488281 17.761719 10.425781 16.433594 L 10.425781 16.558594 C 10.425781 17.933594 11.527344 19.042969 12.902344 19.042969 C 14.277344 19.042969 15.378906 17.933594 15.378906 16.558594 Z M 15.378906 16.433594 "/>
<path style=" stroke:none;fill-rule:nonzero;fill:rgb(12.941177%,12.941177%,12.941177%);fill-opacity:1;" d="M 11.160156 3.613281 C 9.75 3.613281 8.613281 4.753906 8.613281 6.164062 C 8.613281 6.691406 8.769531 7.175781 9.042969 7.582031 L 4.964844 7.582031 C 4.667969 7.605469 4.433594 7.851562 4.433594 8.152344 C 4.433594 8.449219 4.667969 8.695312 4.964844 8.71875 L 11.160156 8.71875 C 12.089844 8.742188 12.957031 8.261719 13.425781 7.457031 C 13.894531 6.660156 13.894531 5.671875 13.425781 4.875 C 12.957031 4.074219 12.089844 3.589844 11.160156 3.613281 Z M 18.855469 3.613281 C 17.910156 3.613281 17.050781 4.128906 16.605469 4.964844 C 16.160156 5.789062 16.207031 6.800781 16.734375 7.582031 L 14.183594 7.582031 C 14.15625 7.582031 14.128906 7.597656 14.121094 7.621094 C 13.957031 8.003906 13.691406 8.339844 13.359375 8.589844 C 13.332031 8.605469 13.324219 8.636719 13.332031 8.667969 C 13.339844 8.695312 13.371094 8.71875 13.402344 8.71875 L 18.355469 8.71875 C 18.410156 8.71875 18.464844 8.707031 18.515625 8.695312 C 18.628906 8.707031 18.738281 8.71875 18.855469 8.71875 C 20.269531 8.71875 21.402344 7.574219 21.402344 6.164062 C 21.402344 4.753906 20.269531 3.613281 18.855469 3.613281 Z M 11.160156 3.753906 C 12.492188 3.753906 13.570312 4.832031 13.570312 6.167969 C 13.570312 7.5 12.492188 8.578125 11.160156 8.578125 L 4.964844 8.578125 C 4.851562 8.578125 4.738281 8.535156 4.664062 8.457031 C 4.582031 8.371094 4.535156 8.269531 4.535156 8.152344 C 4.535156 7.910156 4.722656 7.722656 4.964844 7.722656 L 9.175781 7.722656 C 9.207031 7.722656 9.230469 7.710938 9.238281 7.6875 C 9.253906 7.660156 9.246094 7.636719 9.234375 7.613281 C 8.925781 7.195312 8.753906 6.683594 8.753906 6.164062 C 8.753906 5.527344 9.003906 4.910156 9.457031 4.457031 C 9.910156 4.007812 10.523438 3.753906 11.160156 3.753906 Z M 18.855469 3.753906 C 19.496094 3.753906 20.109375 4.007812 20.558594 4.457031 C 21.011719 4.910156 21.261719 5.527344 21.261719 6.164062 C 21.261719 6.863281 20.964844 7.527344 20.4375 7.988281 C 19.910156 8.441406 19.214844 8.652344 18.519531 8.554688 C 18.511719 8.550781 18.496094 8.550781 18.488281 8.554688 C 18.445312 8.566406 18.398438 8.578125 18.355469 8.578125 L 13.59375 8.578125 C 13.863281 8.339844 14.082031 8.050781 14.226562 7.722656 L 16.863281 7.722656 C 16.894531 7.722656 16.917969 7.710938 16.925781 7.6875 C 16.941406 7.660156 16.941406 7.636719 16.921875 7.613281 C 16.621094 7.207031 16.441406 6.707031 16.441406 6.164062 C 16.441406 4.828125 17.519531 3.753906 18.855469 3.753906 Z M 8.433594 10.035156 C 8.113281 10.035156 7.863281 10.292969 7.871094 10.605469 C 7.871094 10.921875 8.121094 11.175781 8.433594 11.175781 L 16.734375 11.175781 C 16.207031 11.953125 16.160156 12.960938 16.597656 13.792969 C 17.042969 14.625 17.910156 15.140625 18.855469 15.140625 C 20.269531 15.140625 21.402344 14.003906 21.402344 12.589844 C 21.402344 11.179688 20.269531 10.035156 18.855469 10.035156 Z M 8.433594 10.175781 L 18.855469 10.175781 C 20.191406 10.175781 21.261719 11.253906 21.261719 12.589844 C 21.261719 13.230469 21.011719 13.847656 20.558594 14.296875 C 20.109375 14.746094 19.496094 15 18.855469 15 C 17.519531 15 16.441406 13.925781 16.441406 12.589844 C 16.441406 12.046875 16.621094 11.550781 16.921875 11.144531 C 16.941406 11.121094 16.941406 11.097656 16.925781 11.066406 C 16.917969 11.042969 16.894531 11.035156 16.863281 11.035156 L 8.433594 11.035156 C 8.320312 11.035156 8.207031 10.988281 8.132812 10.910156 C 8.050781 10.828125 8.011719 10.714844 8.011719 10.605469 C 8.011719 10.371094 8.199219 10.175781 8.433594 10.175781 Z M 2.484375 14.011719 C 2.175781 14.011719 1.917969 14.261719 1.917969 14.578125 C 1.917969 14.886719 2.175781 15.140625 2.484375 15.140625 L 10.78125 15.140625 C 10.265625 15.925781 10.214844 16.925781 10.660156 17.761719 C 11.105469 18.585938 11.964844 19.105469 12.902344 19.113281 C 14.316406 19.113281 15.449219 17.972656 15.449219 16.558594 C 15.449219 15.144531 14.316406 14.011719 12.902344 14.011719 Z M 2.484375 14.152344 L 12.902344 14.152344 C 13.542969 14.152344 14.15625 14.402344 14.605469 14.855469 C 15.058594 15.304688 15.308594 15.917969 15.308594 16.558594 C 15.308594 17.894531 14.238281 18.972656 12.902344 18.972656 C 11.566406 18.972656 10.496094 17.894531 10.496094 16.558594 C 10.496094 16.011719 10.667969 15.515625 10.96875 15.113281 C 10.988281 15.09375 10.992188 15.066406 10.980469 15.042969 C 10.96875 15.019531 10.945312 15 10.917969 15 L 2.484375 15 C 2.371094 15 2.261719 14.957031 2.179688 14.878906 C 2.105469 14.800781 2.058594 14.691406 2.058594 14.578125 C 2.058594 14.339844 2.246094 14.152344 2.484375 14.152344 Z M 2.484375 14.152344 "/>
</g>
</svg>

<svg xmlns="http://www.w3.org/2000/svg" width="32" height="32" viewBox="0 0 24 24"><defs><radialGradient id="a" gradientUnits="userSpaceOnUse" cx="450.909" cy="189.579" fx="450.909" fy="189.579" r="21.167" gradientTransform="matrix(0 -.0586 -.10548 0 32.648 45.687)"><stop offset="0" stop-opacity=".314"/><stop offset=".222" stop-opacity=".275"/><stop offset="1" stop-opacity="0"/></radialGradient><radialGradient id="b" gradientUnits="userSpaceOnUse" cx="450.909" cy="189.579" fx="450.909" fy="189.579" r="21.167" gradientTransform="matrix(0 .0586 .10548 0 -6.849 -7.655)"><stop offset="0" stop-opacity=".314"/><stop offset=".222" stop-opacity=".275"/><stop offset="1" stop-opacity="0"/></radialGradient><radialGradient id="c" gradientUnits="userSpaceOnUse" cx="450.909" cy="189.579" fx="450.909" fy="189.579" r="21.167" gradientTransform="matrix(0 -.0586 .10548 0 -6.849 45.687)"><stop offset="0" stop-opacity=".314"/><stop offset=".222" stop-opacity=".275"/><stop offset="1" stop-opacity="0"/></radialGradient><radialGradient id="d" gradientUnits="userSpaceOnUse" cx="450.909" cy="189.579" fx="450.909" fy="189.579" r="21.167" gradientTransform="matrix(0 .0586 -.10548 0 32.648 -7.655)"><stop offset="0" stop-opacity=".314"/><stop offset=".222" stop-opacity=".275"/><stop offset="1" stop-opacity="0"/></radialGradient><linearGradient id="e" gradientUnits="userSpaceOnUse" x1="1040" y1="1535.118" x2="1040" y2="295.118" gradientTransform="scale(.0124)"><stop offset="0" stop-color="#b0bec5"/><stop offset="1" stop-color="#cfd8dc"/></linearGradient></defs><path d="M12.898 19.016h1.985v-.993h-1.985zm0 0" fill="url(#a)"/><path d="M12.898 19.016h-1.984v.992h1.984zm0 0" fill="url(#b)"/><path d="M12.898 19.016h-1.984v-.993h1.984zm0 0" fill="url(#c)"/><path d="M12.898 19.016h1.985v.992h-1.985zm0 0" fill="url(#d)"/><path d="M11.164 3.684a2.474 2.474 0 0 0-2.48 2.48c0 .559.183 1.074.492 1.488H4.96a.497.497 0 0 0 0 .993h6.203a2.474 2.474 0 0 0 2.48-2.48 2.474 2.474 0 0 0-2.48-2.481zm7.688 0a2.476 2.476 0 0 0-2.48 2.48c0 .559.183 1.074.495 1.488h-2.683a2.478 2.478 0 0 1-.786.993h4.957a.479.479 0 0 0 .153-.024 2.477 2.477 0 0 0 2.828-2.457c0-1.375-1.11-2.48-2.484-2.48zM8.434 10.109a.497.497 0 0 0 0 .993h8.433a2.46 2.46 0 0 0-.496 1.488c0 1.375 1.11 2.48 2.48 2.48a2.477 2.477 0 0 0 2.485-2.48c0-1.375-1.11-2.48-2.484-2.48zm-5.95 3.97a.494.494 0 0 0-.496.495c0 .278.219.496.496.496h8.43c-.309.414-.492.93-.492 1.489a2.474 2.474 0 0 0 2.48 2.48 2.474 2.474 0 0 0 2.48-2.48 2.476 2.476 0 0 0-2.48-2.48zm0 0" fill="url(#e)"/><path d="M11.164 3.684a2.474 2.474 0 0 0-2.48 2.48v.113a2.478 2.478 0 0 1 2.48-2.367 2.474 2.474 0 0 1 2.477 2.367c.004-.039.004-.074.004-.113a2.474 2.474 0 0 0-2.48-2.48zm7.688 0a2.476 2.476 0 0 0-2.48 2.48c0 .04.003.078.003.113a2.474 2.474 0 0 1 2.477-2.367 2.475 2.475 0 0 1 2.48 2.367c0-.039.004-.074.004-.113 0-1.375-1.11-2.48-2.484-2.48zM4.96 7.652a.497.497 0 0 0-.484.61.499.499 0 0 1 .484-.383h4.215a2.05 2.05 0 0 1-.149-.227zm9.223 0a2.478 2.478 0 0 1-.786.993h.262c.219-.22.399-.477.524-.766h2.683a2.87 2.87 0 0 1-.152-.227zm-5.75 2.457a.497.497 0 0 0-.485.61.499.499 0 0 1 .485-.383h10.418a2.475 2.475 0 0 1 2.48 2.367c0-.035.004-.074.004-.113 0-1.375-1.11-2.48-2.484-2.48zm8.28 1.22c-.218.366-.343.8-.343 1.26 0 .04.004.075.004.114.023-.515.203-.988.492-1.375zm-14.23 2.75a.494.494 0 0 0-.484.608.495.495 0 0 1 .484-.382h10.418a2.474 2.474 0 0 1 2.477 2.367c.004-.035.004-.074.004-.113a2.476 2.476 0 0 0-2.48-2.48zm8.282 1.218a2.462 2.462 0 0 0-.34 1.375c.02-.516.199-.988.488-1.375zm0 0" fill="#fefefe" fill-opacity=".392"/><path d="M8.688 6.04c-.004.042-.004.081-.004.124 0 .453.117.875.328 1.242h.164a2.478 2.478 0 0 1-.489-1.367zm7.687 0c0 .042-.004.081-.004.124 0 .453.121.875.332 1.242h.164a2.481 2.481 0 0 1-.492-1.367zm-2.734 0a2.475 2.475 0 0 1-2.477 2.358H4.961a.498.498 0 0 1-.48-.375.494.494 0 0 0 .48.621h6.203a2.474 2.474 0 0 0 2.48-2.48c0-.039 0-.082-.003-.125zm7.691 0a2.479 2.479 0 0 1-2.824 2.335.479.479 0 0 1-.153.023h-4.671a2.43 2.43 0 0 1-.286.247h4.957a.479.479 0 0 0 .153-.024 2.477 2.477 0 0 0 2.828-2.457c0-.039-.004-.082-.004-.125zM7.953 10.483a.494.494 0 0 0 .48.617h8.27c.05-.085.106-.167.164-.246H8.434a.5.5 0 0 1-.48-.37zm13.379 1.985a2.476 2.476 0 0 1-2.48 2.355 2.475 2.475 0 0 1-2.477-2.355c0 .039-.004.082-.004.12 0 1.376 1.11 2.481 2.48 2.481a2.477 2.477 0 0 0 2.485-2.48c0-.04-.004-.082-.004-.121zM2.004 14.453a.492.492 0 0 0 .48.617h8.266c.05-.086.105-.168.164-.246h-8.43a.491.491 0 0 1-.48-.37zm13.375 1.985a2.472 2.472 0 0 1-2.477 2.355 2.472 2.472 0 0 1-2.476-2.355c-.004.039-.004.082-.004.12a2.474 2.474 0 0 0 2.48 2.481 2.474 2.474 0 0 0 2.48-2.48c0-.04 0-.082-.003-.122zm0 0" fill-opacity=".235"/><path d="M11.164 3.613a2.547 2.547 0 0 0-2.55 2.551c0 .527.156 1.012.429 1.418H4.961a.567.567 0 0 0 0 1.133h6.203c1.41 0 2.55-1.137 2.55-2.55 0-1.411-1.14-2.552-2.55-2.552zm7.688 0a2.549 2.549 0 0 0-2.122 3.969h-2.546a.072.072 0 0 0-.067.043c-.164.383-.43.715-.762.965a.075.075 0 0 0-.023.078c.012.027.04.047.066.047h4.957c.055 0 .11-.008.157-.024a2.547 2.547 0 0 0 2.895-2.527 2.55 2.55 0 0 0-2.555-2.55zm-7.688.14a2.404 2.404 0 0 1 2.41 2.411 2.404 2.404 0 0 1-2.41 2.41H4.961a.422.422 0 0 1-.426-.426c0-.234.188-.425.426-.425h4.215a.07.07 0 0 0 .062-.04.066.066 0 0 0-.008-.074 2.403 2.403 0 0 1-.476-1.445 2.404 2.404 0 0 1 2.41-2.41zm7.688 0a2.405 2.405 0 0 1 2.414 2.411 2.405 2.405 0 0 1-2.746 2.387c-.012 0-.024 0-.032.004a.496.496 0 0 1-.133.02h-4.761a2.48 2.48 0 0 0 .633-.852h2.64a.07.07 0 0 0 .063-.04c.011-.023.008-.05-.008-.074-.3-.402-.48-.902-.48-1.445a2.404 2.404 0 0 1 2.41-2.41zM8.434 10.04a.567.567 0 0 0 0 1.133h8.296a2.56 2.56 0 0 0-.43 1.418c0 1.414 1.141 2.55 2.552 2.55a2.55 2.55 0 1 0 0-5.102zm0 .14h10.418a2.405 2.405 0 0 1 2.414 2.41A2.405 2.405 0 0 1 18.852 15a2.404 2.404 0 0 1-2.41-2.41c0-.543.18-1.043.48-1.445.015-.02.02-.051.008-.075a.07.07 0 0 0-.063-.039H8.434a.427.427 0 0 1 0-.852zm-5.95 3.829a.567.567 0 0 0 0 1.133h8.297a2.56 2.56 0 0 0-.43 1.418c0 1.414 1.141 2.55 2.551 2.55a2.544 2.544 0 0 0 2.551-2.55c0-1.41-1.137-2.551-2.55-2.551zm0 .14h10.418a2.404 2.404 0 0 1 2.41 2.41c0 1.34-1.074 2.41-2.41 2.41a2.402 2.402 0 0 1-2.41-2.41c0-.542.18-1.042.48-1.445.016-.02.016-.05.005-.074a.07.07 0 0 0-.063-.039h-8.43a.422.422 0 0 1-.425-.426c0-.234.187-.426.425-.426zm0 0" fill="#212121"/></svg>
